X: 552
T: Arrival Of The Queen Of Sheeba
B: good tune book
B: tunes
M:4/4
R: reel
Q: 1/4=100
K:Gmajor
V:1 
 d6 Bd g4B4|e4 d3c B4 z4|B6 Bd ^c6 Ae|! fede A2^c2 d2AB ABAB|A6 FA d6 Bd|c6 Ac B4 z4|
V:2 
 B6 dB G6 dB|A3G F2F2 G4 z4|G6 GB A6 e^c|! AGFG E2A2 F2FG FGFG|F6 DF G6 dg|A6 FA D4 z4
V:3 
gdBd gdBd gdBd gdBd|Agfe dcBA BGAB cdef|gdBd gdBd g^cAc geAe|! fede A2^c2 d2AB ABAB|AFDF AFDF dBGB dBGB|cAFA cAFA BDEF GABc
V:4 
g2g2f2f2 e2e2d2d2|c2c2d2d2 g4 G4|B2B2e2e2 A2A2^c2c2|! d2g2a2A2 d4 F2A2|d2d2c2c2 B2B2e2e2|A2A2d2d2 g4 G4
% abcbook-tune_id 63dcd44d5b9092659304368f
% abcbook-tune_composer_id 
% abcbook-link-0 https://www.youtube.com/watch?v=onRtpse0MHU
% abcbook-link-title-0 De Danann - The Arrival of the Queen of Sheba (in Galway)
% abcbook-link-start-at-0 106
% abcbook-boost 0
% abcbook-difficulty 0
% abcbook-tags good tune book
% abcbook-tablature 
% abcbook-transpose 
% abcbook-tuning 
% abcbook-lastupdated 1675423594432
% abcbook-soundfonts 
% abcbook-repeats 1


